docs/img/values/like.svg

<svg width="48" height="48" viewBox="0 0 48 48" fill="none" xmlns="http://www.w3.org/2000/svg">
<path d="M44.0166 29.7188C44.6859 28.9716 45.0938 27.9853 45.0938 26.9062C45.0938 24.5803 43.2009 22.6875 40.875 22.6875H32.6869C33.4978 20.2266 33.8438 16.9613 33.8438 15.5616V14.1562C33.8438 11.055 31.32 8.53125 28.2188 8.53125H26.8125C26.1675 8.53125 25.605 8.97 25.4484 9.59625L24.6825 12.6609C23.6091 16.9528 20.2012 21.6881 16.6744 22.5488C16.0566 20.985 14.5312 19.875 12.75 19.875H4.3125C3.53625 19.875 2.90625 20.505 2.90625 21.2812V46.5938C2.90625 47.37 3.53625 48 4.3125 48H12.75C14.4272 48 15.8784 47.0166 16.5581 45.5953L21.39 47.2059C22.9697 47.7328 24.6159 48 26.2819 48H38.0625C40.3884 48 42.2812 46.1072 42.2812 43.7812C42.2812 43.2328 42.1762 42.7078 41.985 42.2269C43.7737 41.7384 45.0938 40.0987 45.0938 38.1562C45.0938 37.0772 44.6859 36.0909 44.0166 35.3438C44.6859 34.5966 45.0938 33.6103 45.0938 32.5312C45.0938 31.4522 44.6859 30.4659 44.0166 29.7188ZM14.1562 43.7812C14.1562 44.5566 13.5253 45.1875 12.75 45.1875H5.71875V22.6875H12.75C13.5253 22.6875 14.1562 23.3184 14.1562 24.0938V43.7812ZM38.0625 31.125H40.875C41.6503 31.125 42.2812 31.7559 42.2812 32.5312C42.2812 33.3066 41.6503 33.9375 40.875 33.9375H38.0625C37.2863 33.9375 36.6562 34.5675 36.6562 35.3438C36.6562 36.12 37.2863 36.75 38.0625 36.75H40.875C41.6503 36.75 42.2812 37.3809 42.2812 38.1562C42.2812 38.9316 41.6503 39.5625 40.875 39.5625H38.0625C37.2863 39.5625 36.6562 40.1925 36.6562 40.9688C36.6562 41.745 37.2863 42.375 38.0625 42.375C38.8378 42.375 39.4688 43.0059 39.4688 43.7812C39.4688 44.5566 38.8378 45.1875 38.0625 45.1875H26.2819C24.9187 45.1875 23.5716 44.9691 22.2787 44.5378L16.9688 42.7678V25.3669C19.1747 24.9478 21.3338 23.5509 23.2828 21.2644C25.1859 19.0313 26.7291 16.0706 27.4106 13.3434L27.9103 11.3438H28.2188C29.7694 11.3438 31.0312 12.6056 31.0312 14.1562V15.5616C31.0312 17.4497 30.4406 21.0713 29.685 22.6875H26.8125C26.0363 22.6875 25.4062 23.3175 25.4062 24.0938C25.4062 24.87 26.0363 25.5 26.8125 25.5H40.875C41.6503 25.5 42.2812 26.1309 42.2812 26.9062C42.2812 27.6816 41.6503 28.3125 40.875 28.3125H38.0625C37.2863 28.3125 36.6562 28.9425 36.6562 29.7188C36.6562 30.495 37.2863 31.125 38.0625 31.125Z" fill="#FF5A30"/>
<path d="M9.9375 42.375C10.7142 42.375 11.3438 41.7454 11.3438 40.9688C11.3438 40.1921 10.7142 39.5625 9.9375 39.5625C9.16085 39.5625 8.53125 40.1921 8.53125 40.9688C8.53125 41.7454 9.16085 42.375 9.9375 42.375Z" fill="#FF5A30"/>
<path d="M29.625 0C28.8484 0 28.2188 0.629625 28.2188 1.40625V4.3125C28.2188 5.08913 28.8484 5.71875 29.625 5.71875C30.4016 5.71875 31.0312 5.08913 31.0312 4.3125V1.40625C31.0312 0.629625 30.4016 0 29.625 0Z" fill="#FF5A30"/>
<path d="M23.6589 6.20139L21.6701 4.21267C21.1211 3.66348 20.2306 3.66348 19.6814 4.21267C19.1322 4.76186 19.1322 5.6522 19.6814 6.20139L21.6701 8.19011C22.2192 8.7392 23.1098 8.7393 23.6589 8.19011C24.2081 7.64092 24.2081 6.75058 23.6589 6.20139Z" fill="#FF5A30"/>
<path d="M39.569 4.21267C39.0199 3.66348 38.1295 3.66348 37.5803 4.21267L35.5916 6.2013C35.0424 6.75049 35.0424 7.64083 35.5916 8.19002C36.1407 8.73921 37.0311 8.7393 37.5803 8.19011L39.569 6.20139C40.1182 5.6522 40.1182 4.76186 39.569 4.21267Z" fill="#FF5A30"/>
</svg>

<svg width="48" height="48" fill="none" xmlns="http://www.w3.org/2000/svg"><path d="M44.017 29.719a4.204 4.204 0 001.077-2.813 4.224 4.224 0 00-4.219-4.218h-8.188c.81-2.461 1.157-5.727 1.157-7.126v-1.406a5.632 5.632 0 00-5.625-5.625h-1.407c-.645 0-1.207.439-1.364 1.065l-.765 3.065c-1.074 4.292-4.482 9.027-8.009 9.888a4.224 4.224 0 00-3.924-2.674H4.312c-.776 0-1.406.63-1.406 1.406v25.313c0 .776.63 1.406 1.406 1.406h8.438a4.223 4.223 0 003.808-2.405l4.832 1.61c1.58.528 3.226.795 4.892.795h11.78a4.224 4.224 0 003.923-5.773 4.227 4.227 0 003.109-4.07 4.203 4.203 0 00-1.077-2.813 4.204 4.204 0 001.077-2.813 4.203 4.203 0 00-1.077-2.812zM14.157 43.78c0 .776-.632 1.407-1.407 1.407H5.719v-22.5h7.031c.775 0 1.406.63 1.406 1.406V43.78zm23.905-12.656h2.813a1.407 1.407 0 010 2.813h-2.813a1.407 1.407 0 000 2.812h2.813a1.407 1.407 0 010 2.813h-2.813a1.407 1.407 0 000 2.812 1.408 1.408 0 010 2.813h-11.78c-1.363 0-2.71-.219-4.003-.65l-5.31-1.77v-17.4c2.206-.42 4.365-1.816 6.314-4.103 1.903-2.233 3.446-5.193 4.128-7.92l.5-2h.308a2.816 2.816 0 012.812 2.812v1.406c0 1.888-.59 5.51-1.346 7.126h-2.872a1.407 1.407 0 000 2.812h14.062a1.407 1.407 0 010 2.813h-2.813a1.407 1.407 0 000 2.812z" fill="#FF5A30"/><path d="M9.938 42.375a1.406 1.406 0 100-2.813 1.406 1.406 0 000 2.813zM29.625 0c-.777 0-1.406.63-1.406 1.406v2.907a1.406 1.406 0 002.812 0V1.405C31.031.63 30.401 0 29.625 0zm-5.966 6.201L21.67 4.213A1.406 1.406 0 1019.681 6.2l1.99 1.99a1.406 1.406 0 001.988-1.99zm15.91-1.988c-.55-.55-1.44-.55-1.989 0L35.592 6.2a1.406 1.406 0 101.988 1.99l1.99-1.99c.55-.549.55-1.44 0-1.988z" fill="#FF5A30"/></svg>
